X:1456
T:Dark Girl in Blue, The
T:Stay for Another While
O:england
R:reel
M:C|
K:D
d2AG FDDE|FEFG AB (3=cBA|dBAG FDDg|1 fde^c d2 (3ABc:|2 fde^c d2dA||
defg afdB|=cdef ge^ce|defg a2fd|faag fed^c|
defg afdB|=cdef g2fg|afge fded|^cdeg fde^c||


